X:187
T:All Around The World
O:england
M:4/4
L:1/8
Q:1/4=180
K:D
|F3A FEDE|FAAB AFED|defg fdec|dBAF BEEG|
F3A FEDE|FAAB AFED|d2e/2f/2g fdec|dBAG FDDE:|:
d2AG FDFA|dfaf gfeg|fAdf eAce|dfed cAA|
BEGB ADFA|dfaf gfed|B/2c/2dec dBAG|FAEA D4:|
